src/assets/images/manRunning2.svg

<svg width="269" height="324" viewBox="0 0 269 324" fill="none" xmlns="http://www.w3.org/2000/svg">
<path d="M102.567 90.1191L85.3665 95.6179C85.3665 95.6179 80.1332 115.813 81.7665 119.413C83.3999 123.012 92.5999 125.744 96.9665 123.578C101.333 121.412 116.133 107.249 116.133 107.249L102.567 90.1191Z" fill="#FFEDE5"/>
<path d="M118.333 70.6235C118.333 70.6235 107.333 83.0873 102.566 90.1191L114.833 109.281L127.666 97.7507C127.666 97.7507 125.533 65.8579 118.333 70.6235Z" fill="#543753"/>
<path d="M100.6 90.7523V109.948L106.133 95.6845L102.567 90.1191L100.6 90.7523Z" fill="#E0855C"/>
<path d="M99.7667 79.6215C101.267 79.988 101.733 78.955 102.967 80.9212C104.2 82.8874 106.8 90.5857 106.1 91.7521C105.4 92.9185 97.6333 100.417 97.0667 100.417C96.5 100.417 95.0667 98.3173 95.3667 97.5841C95.3667 97.5841 93.5333 98.6838 92.3333 98.4839C92.3333 98.4839 89.6667 99.8836 88.6 99.617C87.5333 99.3504 81.3 90.1524 82.7667 87.7196C84.2333 85.2869 85.1667 86.5533 86.0333 85.5868C86.9 84.6203 88.3667 83.0207 90.1333 83.1873C91.9 83.354 92.7 80.6212 95.2667 81.0212C97.8333 81.4211 96.4333 78.7883 99.7667 79.6215Z" fill="#FFEDE5"/>
<path d="M95.3333 97.9173C95.2 97.9173 95.1 97.8507 95.0333 97.7507C94.9333 97.5841 95 97.3841 95.1666 97.3175C95.2 97.3175 98.2 95.7178 99 94.5514L99.0666 94.4848C99.1 94.4848 100.8 92.9518 101.367 91.7854L98.4666 85.2202C98.4 85.0536 98.4666 84.8536 98.6333 84.787C98.8 84.7203 99 84.787 99.0666 84.9536L102.067 91.7854L102 91.9187C101.5 93.1851 99.7666 94.7514 99.5 94.9847C98.5666 96.2844 95.5666 97.8507 95.4333 97.9173C95.4333 97.884 95.4 97.9173 95.3333 97.9173Z" fill="#472938"/>
<path d="M92.2997 98.8171C92.1664 98.8171 92.0664 98.7505 91.9997 98.6172L88.2997 91.0855C88.2331 90.9189 88.2997 90.7189 88.4664 90.6523C88.6331 90.5856 88.8331 90.6523 88.8997 90.8189L92.5997 98.3506C92.6664 98.5172 92.5997 98.7172 92.4331 98.7838C92.3997 98.8171 92.3664 98.8171 92.2997 98.8171Z" fill="#472938"/>
<path d="M97.2998 96.7509C97.1665 96.7509 97.0665 96.6843 96.9998 96.551L93.5331 89.086C93.4664 88.9194 93.5331 88.7194 93.6998 88.6527C93.8664 88.5861 94.0664 88.6527 94.1331 88.8194L97.5998 96.2844C97.6665 96.451 97.5998 96.6509 97.4331 96.7176C97.3998 96.7509 97.3331 96.7509 97.2998 96.7509Z" fill="#472938"/>
<path d="M97.0333 100.75C96.5 100.75 95.9 99.9169 95.6667 99.5837C95.5 99.3504 95.1333 98.7505 95 98.1506C94.3667 98.4506 93.2667 98.9171 92.3667 98.8505C91.8333 99.1171 89.5667 100.217 88.5 99.9502C87.9 99.8169 86.8 98.3506 86.2 97.4841C86.1 97.3175 86.1333 97.1175 86.2667 97.0176C86.4 96.9176 86.6333 96.9509 86.7333 97.0842C87.7667 98.5839 88.4667 99.2171 88.6333 99.2837C89.3333 99.4504 91.1333 98.6839 92.1333 98.184L92.2333 98.1506H92.3333C93.4333 98.3173 95.1333 97.2842 95.1667 97.2842L96.0333 96.7843L95.6667 97.7174C95.6333 97.8174 95.6333 98.1506 95.9667 98.7838C96.3667 99.517 96.8333 99.9836 97.0333 100.084C97.8667 99.617 103.3 94.4848 105.233 92.4186C103.433 92.8518 101.7 92.0853 101.633 92.052C101.467 91.9854 101.4 91.7854 101.467 91.6188C101.533 91.4521 101.733 91.3855 101.9 91.4521C101.933 91.4521 104.1 92.4186 105.933 91.4521C106.167 91.3188 106.333 91.3855 106.4 91.4855C106.5 91.5521 106.567 91.7187 106.5 91.8854C106.267 92.4852 97.8333 100.75 97.0333 100.75Z" fill="#472938"/>
<path d="M156.033 50.5946L172.733 61.0923V82.8541C172.733 82.8541 155.366 118.979 156.033 132.01L116.266 139.441C116.266 139.441 106.733 101.183 118.333 70.5902L136.066 58.1263L156.033 50.5946Z" fill="#AB8DA8"/>
<path d="M112.6 108.715C112.433 108.715 112.267 108.582 112.267 108.382C112.133 99.1504 112.867 90.5523 114.5 82.7541C114.533 82.5874 114.7 82.4541 114.9 82.4875C115.067 82.5208 115.2 82.6874 115.167 82.8874C113.567 90.619 112.8 99.1837 112.967 108.348C112.933 108.548 112.8 108.715 112.6 108.715Z" fill="#472938"/>
<path d="M172.733 82.8874L159.7 80.9212L167 95.6845L172.733 82.8874Z" fill="#543753"/>
<path d="M151.7 37.231L156.033 50.5946C151.4 52.3942 147.233 55.1936 143.833 58.8261C138.133 64.8914 135.933 70.6235 132.5 70.6235C129.067 70.6235 136.1 58.1596 136.1 58.1596L135.2 46.4956L151.7 37.231Z" fill="#FFEDE5"/>
<path d="M135.633 52.4276C135.633 52.4276 143.267 51.2945 147.167 40.3303L135.167 46.4956L135.633 52.4276Z" fill="#E0855C"/>
<path d="M129.967 9.93707C129.967 9.93707 122.6 45.8624 126.433 48.3285C130.267 50.7946 145.4 48.6617 151.033 38.664C156.667 28.6662 149.6 9.93707 129.967 9.93707Z" fill="#FFEDE5"/>
<path d="M127.6 22.7009C127.6 22.7009 120.667 31.6655 121.367 32.532C122.067 33.3985 125.867 34.6315 125.867 34.6315L127.6 22.7009Z" fill="#FFEDE5"/>
<path d="M148.4 33.2319C148.4 33.2319 144.933 31.4989 147.167 23.9339C147.167 23.9339 142.667 15.9691 139.733 14.6694C136.8 13.3697 129.333 12.9697 129.333 12.9697C129.333 12.9697 127.833 2.47211 130.333 1.37236C132.833 0.272602 155.967 0.905785 160.333 9.07062C161.8 11.8367 160.867 13.503 160.867 13.503C160.867 13.503 163.333 16.7689 162.9 19.5683C162.467 22.3676 155.667 32.732 155.667 32.732L148.4 33.2319Z" fill="#3B2645"/>
<path d="M155.318 35.9637C157.636 33.6471 158.29 30.5454 156.78 29.0357C155.27 27.526 152.167 28.1801 149.85 30.4967C147.533 32.8133 146.879 35.9151 148.389 37.4247C149.899 38.9344 153.001 38.2803 155.318 35.9637Z" fill="#FFEDE5"/>
<path d="M129.366 40.3969C127.8 40.3969 126.4 39.9637 126.3 39.9304C126.133 39.8637 126.033 39.6971 126.1 39.4971C126.166 39.3305 126.333 39.2305 126.533 39.2972C126.566 39.2972 131.1 40.7635 132.666 38.364C132.766 38.1974 132.966 38.1641 133.133 38.2641C133.3 38.364 133.333 38.564 133.233 38.7306C132.333 40.0303 130.8 40.3969 129.366 40.3969Z" fill="#472938"/>
<path d="M150.167 34.7649C150.067 34.7649 149.933 34.6982 149.9 34.5982C149.8 34.4316 149.833 34.2316 150 34.1317L152.7 32.432C152.867 32.332 153.067 32.3654 153.167 32.532C153.267 32.6986 153.233 32.8986 153.067 32.9986L150.367 34.6982C150.3 34.7315 150.233 34.7649 150.167 34.7649Z" fill="#472938"/>
<path d="M132.2 22.7342C132.9 22.9008 133.333 23.6007 133.167 24.2672L132.967 25.167C132.8 25.8668 132.1 26.3001 131.433 26.1334C130.733 25.9668 130.3 25.267 130.467 24.6005L130.667 23.7007C130.833 23.0008 131.5 22.5676 132.2 22.7342Z" fill="#3B2645"/>
<path d="M130.8 19.235C130.8 19.235 135.2 18.9351 136.333 22.5343C136.333 22.5343 136.2 18.7684 133.433 18.2019C130.667 17.6353 129.767 19.0683 130.8 19.235Z" fill="#3B2645"/>
<path d="M161.967 54.3271C147 51.7943 156.933 83.354 156.933 83.354L179.333 90.1191L187.633 64.6248C174.6 58.8928 161.967 54.3271 161.967 54.3271Z" fill="#AB8DA8"/>
<path d="M182.833 128.91C182.833 128.91 174.933 131.676 174.167 132.91C173.4 134.143 174.133 138.508 174.133 138.508C173.3 139.841 172.633 141.241 172.167 142.741C171.5 144.973 173.167 144.307 175.133 146.573C177.1 148.839 178.7 148.273 179.833 149.306C180.967 150.339 183.267 150.006 184.167 150.439C185.067 150.872 186.767 152.338 187.8 152.272C188.833 152.205 191.267 148.673 193.267 144.24C195.267 139.808 194.9 136.209 195.8 130.877C196.7 125.544 217.733 91.2522 215.267 81.9543C214.033 77.322 200.633 70.3902 187.6 64.6248L179.3 90.1191L191.167 93.7183L182.833 128.91Z" fill="#FFEDE5"/>
<path d="M194.733 94.9847C194.7 94.9847 194.667 94.9847 194.633 94.9847L191.067 94.0182C190.9 93.9849 190.767 93.7849 190.833 93.6183C190.867 93.4517 191.067 93.3517 191.233 93.385L194.8 94.3515C194.967 94.3848 195.1 94.5848 195.033 94.7514C195.033 94.8847 194.9 94.9847 194.733 94.9847Z" fill="#472938"/>
<path d="M221.833 214.391L234.8 207.893C234.8 207.893 234.5 205.36 237.1 202.494C239.7 199.628 237.767 192.996 235.333 191.93C232.9 190.863 231.7 191.596 229.6 188.164L210.833 196.295L221.833 214.391Z" fill="#FFEDE5"/>
<path d="M235.3 191.93C237.733 192.996 239.633 199.628 237.067 202.494C234.5 205.36 234.767 207.893 234.767 207.893C245.867 209.392 256.3 225.655 258.267 227.488C260.233 229.321 268.2 228.022 268.433 226.655C268.667 225.289 251.367 179.666 249.767 178.666C248.167 177.666 229.567 188.164 229.567 188.164C231.667 191.596 232.867 190.863 235.3 191.93Z" fill="#AB8DA8"/>
<path d="M268.433 226.655C268.633 225.289 251.367 179.666 249.767 178.666C249.367 178.399 247.9 178.866 245.967 179.699C250.567 188.83 262.3 220.29 265.2 228.088C266.933 227.755 268.333 227.222 268.433 226.655Z" fill="#E5E5E5"/>
<path d="M121.867 166.202C121.867 166.202 151.6 244.185 164.133 245.218C176.667 246.251 227.533 212.092 227.533 212.092L218.067 193.129L175.1 207.293L164.4 158.337L121.867 166.202Z" fill="#3B2645"/>
<g opacity="0.5">
<path opacity="0.5" d="M164.4 158.37L121.867 166.202C121.867 166.202 129.5 186.198 138.633 206.06L167.933 174.7L164.4 158.37Z" fill="#3B2645"/>
</g>
<path d="M43.7333 278.677L38 291.974C38 291.974 39.8667 293.74 39.7333 297.573C39.6 301.405 45.3333 305.271 47.9 304.504C50.4667 303.738 50.9 302.405 54.7334 303.705L63.8667 285.375L43.7333 278.677Z" fill="#FFEDE5"/>
<path d="M41.7332 283.309C41.7332 283.309 49.5998 291.541 59.8998 293.274L63.8331 285.375L43.7332 278.643L41.7332 283.309Z" fill="#E0855C"/>
<path d="M156.033 132.043C156.033 132.043 173.433 152.205 164.367 168.202C155.3 184.198 101.267 213.591 97.5999 222.623C93.9332 231.654 91.8666 242.085 84.3666 254.616C76.8666 267.146 64.8999 289.241 64.8999 289.241C64.8999 289.241 46.7999 288.541 40.8999 280.71C40.8999 280.71 70.0999 206.826 77.0666 197.262C84.0332 187.697 116.9 147.173 116.9 147.173L116.233 139.475L156.033 132.043Z" fill="#3B2645"/>
<path d="M56.6666 286.608C56.6332 286.608 56.6332 286.608 56.5999 286.608C56.5332 286.575 56.4666 286.475 56.5332 286.375C56.8666 285.675 89.0332 217.157 95.4666 209.159C97.8332 206.193 104.8 199.228 112.833 191.163C126.6 177.366 143.7 160.203 146 154.938C149.6 146.74 147.2 135.209 147.167 135.076C147.133 134.976 147.2 134.909 147.3 134.876C147.4 134.842 147.467 134.909 147.5 135.009C147.533 135.109 149.933 146.773 146.3 155.071C143.967 160.37 126.833 177.566 113.067 191.396C105.033 199.461 98.0999 206.393 95.7333 209.359C89.3332 217.324 57.1666 285.809 56.8666 286.508C56.7999 286.575 56.7332 286.608 56.6666 286.608Z" fill="white"/>
<path d="M52.0999 285.575C52.0666 285.575 52.0666 285.575 52.0332 285.575C51.9666 285.542 51.8999 285.442 51.9666 285.342C52.2999 284.642 85.6666 214.058 89.5332 208.126C91.4999 205.093 103.233 192.696 114.567 180.732C125.767 168.901 137.367 156.638 139.6 153.372C144.067 146.84 143.133 136.242 143.133 136.142C143.133 136.042 143.2 135.975 143.3 135.975C143.4 135.975 143.467 136.042 143.467 136.142C143.467 136.242 144.433 146.973 139.867 153.605C137.6 156.904 126 169.168 114.8 181.032C103.467 192.996 91.7666 205.393 89.7999 208.393C85.9666 214.325 52.5666 284.875 52.2333 285.575C52.2333 285.542 52.1666 285.575 52.0999 285.575Z" fill="white"/>
<path d="M47.8666 304.538C45.3333 305.271 39.5666 301.438 39.7 297.606C39.8333 293.773 37.9666 292.007 37.9666 292.007C28.4999 298.006 10.0666 292.274 7.36662 292.14C4.66662 292.007 -0.600051 298.139 0.133283 299.306C0.866616 300.472 43.4333 324.267 45.3333 324.033C47.2333 323.8 54.6666 303.771 54.6666 303.771C50.8666 302.438 50.4333 303.805 47.8666 304.538Z" fill="#AB8DA8"/>
<path d="M0.166523 299.305C0.866523 300.472 43.4665 324.267 45.3665 324.033C45.8332 323.967 46.6665 322.7 47.5998 320.801C38.1999 316.768 8.93319 300.239 1.73319 296.14C0.599855 297.473 -0.133477 298.806 0.166523 299.305Z" fill="#E5E5E5"/>
<g opacity="0.5">
<path opacity="0.5" d="M116.9 147.173C116.9 147.173 136.667 144.707 136.467 144.773C136.267 144.84 116.633 143.907 116.633 143.907L116.9 147.173Z" fill="#3B2645"/>
</g>
</svg>

<svg width="269" height="324" fill="none" xmlns="http://www.w3.org/2000/svg"><path d="m102.567 90.12-17.2 5.498s-5.234 20.195-3.6 23.795c1.633 3.599 10.833 6.331 15.2 4.165 4.366-2.166 19.166-16.329 19.166-16.329l-13.566-17.13Z" fill="#FFEDE5"/><path d="M118.333 70.624s-11 12.463-15.767 19.495l12.267 19.162 12.833-11.53s-2.133-31.893-9.333-27.127Z" fill="#543753"/><path d="M100.6 90.752v19.196l5.533-14.263-3.566-5.566-1.967.633Z" fill="#E0855C"/><path d="M99.767 79.621c1.5.367 1.966-.666 3.2 1.3 1.233 1.966 3.833 9.665 3.133 10.831-.7 1.166-8.467 8.665-9.033 8.665-.567 0-2-2.1-1.7-2.833 0 0-1.834 1.1-3.034.9 0 0-2.666 1.4-3.733 1.133-1.067-.267-7.3-9.465-5.833-11.897 1.466-2.433 2.4-1.167 3.266-2.133.867-.967 2.334-2.566 4.1-2.4 1.767.167 2.567-2.566 5.134-2.166 2.566.4 1.166-2.233 4.5-1.4Z" fill="#FFEDE5"/><path d="M95.333 97.917a.35.35 0 0 1-.3-.166c-.1-.167-.033-.367.134-.434.033 0 3.033-1.6 3.833-2.766l.067-.066c.033 0 1.733-1.533 2.3-2.7l-2.9-6.565c-.067-.166 0-.366.166-.433.167-.067.367 0 .434.167l3 6.831-.067.134c-.5 1.266-2.233 2.832-2.5 3.066-.933 1.3-3.933 2.866-4.067 2.932 0-.033-.033 0-.1 0ZM92.3 98.817c-.134 0-.234-.066-.3-.2l-3.7-7.532c-.067-.166 0-.366.166-.433.167-.066.367 0 .434.167l3.7 7.532c.066.166 0 .366-.167.433-.033.033-.067.033-.133.033Z" fill="#472938"/><path d="M97.3 96.75c-.133 0-.233-.066-.3-.199l-3.467-7.465c-.067-.167 0-.367.167-.433.166-.067.366 0 .433.166l3.467 7.465c.067.167 0 .367-.167.434-.033.033-.1.033-.133.033Z" fill="#472938"/><path d="M97.033 100.75c-.533 0-1.133-.833-1.366-1.166-.167-.234-.534-.834-.667-1.433-.633.3-1.733.766-2.633.7-.534.266-2.8 1.366-3.867 1.1-.6-.134-1.7-1.6-2.3-2.467-.1-.166-.067-.366.067-.466a.358.358 0 0 1 .466.066c1.034 1.5 1.734 2.133 1.9 2.2.7.166 2.5-.6 3.5-1.1l.1-.033h.1c1.1.166 2.8-.867 2.834-.867l.866-.5-.366.933c-.034.1-.034.434.3 1.067.4.733.866 1.2 1.066 1.3.834-.467 6.267-5.6 8.2-7.665-1.8.433-3.533-.334-3.6-.367-.166-.067-.233-.267-.166-.433.066-.167.266-.234.433-.167.033 0 2.2.967 4.033 0 .234-.133.4-.067.467.034.1.066.167.233.1.4-.233.6-8.667 8.864-9.467 8.864Z" fill="#472938"/><path d="m156.033 50.595 16.7 10.497v21.762s-17.367 36.125-16.7 49.156l-39.767 7.431s-9.533-38.258 2.067-68.85l17.733-12.465 19.967-7.531Z" fill="#AB8DA8"/><path d="M112.6 108.715a.333.333 0 0 1-.333-.333c-.134-9.232.6-17.83 2.233-25.628.033-.167.2-.3.4-.267.167.034.3.2.267.4-1.6 7.732-2.367 16.297-2.2 25.461-.034.2-.167.367-.367.367Z" fill="#472938"/><path d="M172.733 82.887 159.7 80.921l7.3 14.763 5.733-12.797Z" fill="#543753"/><path d="m151.7 37.231 4.333 13.364a33.098 33.098 0 0 0-12.2 8.231c-5.7 6.065-7.9 11.798-11.333 11.798s3.6-12.464 3.6-12.464l-.9-11.664 16.5-9.265Z" fill="#FFEDE5"/><path d="M135.633 52.428s7.634-1.133 11.534-12.098l-12 6.166.466 5.932Z" fill="#E0855C"/><path d="M129.967 9.937s-7.367 35.925-3.534 38.392c3.834 2.466 18.967.333 24.6-9.665 5.634-9.998-1.433-28.727-21.066-28.727Z" fill="#FFEDE5"/><path d="M127.6 22.7s-6.933 8.966-6.233 9.832c.7.867 4.5 2.1 4.5 2.1L127.6 22.7Z" fill="#FFEDE5"/><path d="M148.4 33.232s-3.467-1.733-1.233-9.298c0 0-4.5-7.965-7.434-9.265-2.933-1.3-10.4-1.7-10.4-1.7s-1.5-10.497 1-11.597c2.5-1.1 25.634-.466 30 7.699 1.467 2.766.534 4.432.534 4.432s2.466 3.266 2.033 6.065c-.433 2.8-7.233 13.164-7.233 13.164l-7.267.5Z" fill="#3B2645"/><path d="M155.318 35.964c2.318-2.317 2.972-5.419 1.462-6.928-1.51-1.51-4.613-.856-6.93 1.46-2.317 2.317-2.971 5.42-1.461 6.929 1.51 1.51 4.612.855 6.929-1.461Z" fill="#FFEDE5"/><path d="M129.366 40.397c-1.566 0-2.966-.433-3.066-.467a.333.333 0 0 1-.2-.433.333.333 0 0 1 .433-.2c.033 0 4.567 1.467 6.133-.933.1-.167.3-.2.467-.1.167.1.2.3.1.467-.9 1.3-2.433 1.666-3.867 1.666ZM150.167 34.765c-.1 0-.234-.067-.267-.167-.1-.166-.067-.366.1-.466l2.7-1.7c.167-.1.367-.067.467.1.1.167.066.367-.1.467l-2.7 1.7c-.067.032-.134.066-.2.066Z" fill="#472938"/><path d="M132.2 22.734c.7.167 1.133.867.967 1.533l-.2.9c-.167.7-.867 1.133-1.534.966-.7-.166-1.133-.866-.966-1.532l.2-.9c.166-.7.833-1.133 1.533-.967ZM130.8 19.235s4.4-.3 5.533 3.3c0 0-.133-3.767-2.9-4.333-2.766-.567-3.666.866-2.633 1.033Z" fill="#3B2645"/><path d="M161.967 54.327c-14.967-2.533-5.034 29.027-5.034 29.027l22.4 6.765 8.3-25.494c-13.033-5.732-25.666-10.298-25.666-10.298Z" fill="#AB8DA8"/><path d="M182.833 128.91s-7.9 2.766-8.666 4c-.767 1.233-.034 5.598-.034 5.598a18.085 18.085 0 0 0-1.966 4.233c-.667 2.232 1 1.566 2.966 3.832 1.967 2.266 3.567 1.7 4.7 2.733 1.134 1.033 3.434.7 4.334 1.133.9.433 2.6 1.899 3.633 1.833 1.033-.067 3.467-3.599 5.467-8.032 2-4.432 1.633-8.031 2.533-13.363.9-5.333 21.933-39.625 19.467-48.923-1.234-4.632-14.634-11.564-27.667-17.33l-8.3 25.495 11.867 3.6-8.334 35.191Z" fill="#FFEDE5"/><path d="M194.733 94.985h-.1l-3.566-.967c-.167-.033-.3-.233-.234-.4.034-.166.234-.266.4-.233l3.567.966c.167.034.3.234.233.4 0 .134-.133.234-.3.234Z" fill="#472938"/><path d="m221.833 214.391 12.967-6.498s-.3-2.533 2.3-5.399c2.6-2.866.667-9.498-1.767-10.564-2.433-1.067-3.633-.334-5.733-3.766l-18.767 8.131 11 18.096Z" fill="#FFEDE5"/><path d="M235.3 191.93c2.433 1.066 4.333 7.698 1.767 10.564-2.567 2.866-2.3 5.399-2.3 5.399 11.1 1.499 21.533 17.762 23.5 19.595 1.966 1.833 9.933.534 10.166-.833.234-1.366-17.066-46.989-18.666-47.989-1.6-1-20.2 9.498-20.2 9.498 2.1 3.432 3.3 2.699 5.733 3.766Z" fill="#AB8DA8"/><path d="M268.433 226.655c.2-1.366-17.066-46.989-18.666-47.989-.4-.267-1.867.2-3.8 1.033 4.6 9.131 16.333 40.591 19.233 48.389 1.733-.333 3.133-.866 3.233-1.433Z" fill="#E5E5E5"/><path d="M121.867 166.202s29.733 77.983 42.266 79.016c12.534 1.033 63.4-33.126 63.4-33.126l-9.466-18.963-42.967 14.164-10.7-48.956-42.533 7.865Z" fill="#3B2645"/><path opacity=".5" d="m164.4 158.37-42.533 7.832s7.633 19.996 16.766 39.858l29.3-31.36-3.533-16.33Z" fill="#3B2645"/><path d="M43.733 278.677 38 291.974s1.867 1.766 1.733 5.599c-.133 3.832 5.6 7.698 8.167 6.931 2.567-.766 3-2.099 6.833-.799l9.134-18.33-20.134-6.698Z" fill="#FFEDE5"/><path d="M41.733 283.309s7.867 8.232 18.167 9.965l3.933-7.899-20.1-6.732-2 4.666Z" fill="#E0855C"/><path d="M156.033 132.043s17.4 20.162 8.334 36.159c-9.067 15.996-63.1 45.389-66.767 54.421-3.667 9.031-5.733 19.462-13.233 31.993-7.5 12.53-19.467 34.625-19.467 34.625s-18.1-.7-24-8.531c0 0 29.2-73.884 36.167-83.448 6.966-9.565 39.833-50.089 39.833-50.089l-.667-7.698 39.8-7.432Z" fill="#3B2645"/><path d="M56.667 286.608H56.6c-.067-.033-.133-.133-.067-.233.334-.7 32.5-69.218 38.934-77.216 2.366-2.966 9.333-9.931 17.366-17.996C126.6 177.366 143.7 160.203 146 154.938c3.6-8.198 1.2-19.729 1.167-19.862-.034-.1.033-.167.133-.2.1-.034.167.033.2.133s2.433 11.764-1.2 20.062c-2.333 5.299-19.467 22.495-33.233 36.325-8.034 8.065-14.967 14.997-17.334 17.963-6.4 7.965-38.566 76.45-38.866 77.149-.067.067-.134.1-.2.1Z" fill="#fff"/><path d="M52.1 285.575h-.067c-.066-.033-.133-.133-.066-.233.333-.7 33.7-71.284 37.566-77.216 1.967-3.033 13.7-15.43 25.034-27.394 11.2-11.831 22.8-24.094 25.033-27.36 4.467-6.532 3.533-17.13 3.533-17.23 0-.1.067-.167.167-.167s.167.067.167.167.966 10.831-3.6 17.463C137.6 156.904 126 169.168 114.8 181.032c-11.333 11.964-23.033 24.361-25 27.361-3.833 5.932-37.233 76.482-37.567 77.182 0-.033-.066 0-.133 0Z" fill="#fff"/><path d="M47.867 304.538c-2.534.733-8.3-3.1-8.167-6.932.133-3.833-1.733-5.599-1.733-5.599-9.467 5.999-27.9.267-30.6.133-2.7-.133-7.967 5.999-7.234 7.166.734 1.166 43.3 24.961 45.2 24.727 1.9-.233 9.334-20.262 9.334-20.262-3.8-1.333-4.234.034-6.8.767Z" fill="#AB8DA8"/><path d="M.167 299.305c.7 1.167 43.3 24.962 45.2 24.728.466-.066 1.3-1.333 2.233-3.232-9.4-4.033-38.667-20.562-45.867-24.661-1.133 1.333-1.866 2.666-1.566 3.165Z" fill="#E5E5E5"/><path opacity=".5" d="M116.9 147.173s19.767-2.466 19.567-2.4c-.2.067-19.834-.866-19.834-.866l.267 3.266Z" fill="#3B2645"/></svg>
